X: 967
T: Tenpenny Bit
B: jims roots
M:6/8
R: jig
Q: 3/8=100
K:ADor
V:1 
e| "Am"eAA eAA| "G"BAB GBd| "Am"eAA eAA| "D"def gag|
   "Am"eAA eAA| "G"BAB GBd| ede gdB| "Em"BAG "Am"A2 :|
|: "Am"eaa aga| "G"bab ged| "Am"eaa aga| "G"bab g2d|
   "Am"eaa aga| "G"bab ged| def gdB| "Em"BAG "Am"A3 :|
% abcbook-tune_id 6298c2970dbab99be5c0fef6


% abcbook-boost 0
% abcbook-tablature 
% abcbook-transpose 
% abcbook-lastupdated 1654178456068
% abcbook-soundfonts 
% abcbook-repeats 1


